demo/leica-v2.cube
TITLE "3D LUT from Image Pairs"
LUT_3D_SIZE 4
0.003922 0.003922 0.003922
0.376808 0.001309 0.051661
0.744636 0.062196 0.028030
0.870684 0.185911 0.078922
0.194040 0.361140 0.001236
0.318074 0.371969 0.000844
0.704591 0.286128 0.015365
0.891437 0.263588 0.014216
0.451206 0.603039 0.023491
0.464918 0.612701 0.002857
0.520704 0.647527 0.003986
0.892003 0.663968 0.002504
0.511113 0.648757 0.033434
0.510138 0.644386 0.004510
0.516007 0.648275 0.004380
0.872498 0.786674 0.006076
0.026562 0.030813 0.448425
0.453240 0.055479 0.289222
0.729254 0.065975 0.400913
0.900691 0.230624 0.238864
0.105629 0.303070 0.314345
0.345098 0.349020 0.345098
0.686274 0.298039 0.337255
0.918470 0.292395 0.246830
0.449315 0.600549 0.184912
0.468033 0.615562 0.194053
0.592811 0.662443 0.201667
0.885817 0.637401 0.131398
0.510796 0.651622 0.072056
0.508282 0.649135 0.055302
0.541756 0.673171 0.094096
0.875863 0.827345 0.174589
0.031105 0.067693 0.495599
0.031094 0.067687 0.495739
0.813088 0.293768 0.657850
0.845451 0.209955 0.561685
0.044759 0.186990 0.611651
0.149399 0.203825 0.609645
0.770245 0.314125 0.653644
0.858417 0.279343 0.618612
0.211575 0.615241 0.750748
0.323068 0.614741 0.679414
0.631373 0.631373 0.631373
0.901348 0.606638 0.630849
0.540825 0.697052 0.386432
0.564075 0.705279 0.342556
0.691010 0.783923 0.410019
0.786602 0.845991 0.476987
0.030131 0.089482 0.525017
0.305835 0.105547 0.544931
0.840873 0.346469 0.704867
0.855961 0.361828 0.717358
0.043213 0.104696 0.543640
0.043265 0.104429 0.543372
0.853471 0.390068 0.737848
0.856892 0.380595 0.732752
0.331634 0.562558 0.827080
0.351551 0.568383 0.832544
0.482774 0.557324 0.794783
0.876481 0.546159 0.827918
0.260405 0.696997 0.830800
0.380082 0.751871 0.837120
0.520107 0.817939 0.834829
0.996078 0.996079 0.996078
