demo/leica-v2.cube
TITLE "3D LUT from Image Pairs"
LUT_3D_SIZE 64
0.003922 0.003922 0.003922
0.007843 0.003922 0.003922
0.011765 0.003922 0.003922
0.015686 0.003922 0.003922
0.019608 0.000000 0.000000
0.035294 0.000000 0.003922
0.058824 0.003922 0.003922
0.070588 0.000000 0.003922
0.090196 0.003922 0.011765
0.116644 0.009910 0.022197
0.133333 0.003922 0.023529
0.156863 0.000000 0.015686
0.173659 0.005210 0.033830
0.196643 0.004703 0.039861
0.222109 0.002137 0.036802
0.243137 0.000000 0.023529
0.261000 0.000591 0.037205
0.274510 0.000000 0.023529
0.293684 0.000841 0.043988
0.322921 0.000567 0.048880
0.351079 0.001438 0.051175
0.376808 0.001309 0.051661
0.394850 0.001666 0.055082
0.406991 0.002485 0.057233
0.425292 0.001528 0.057421
0.455622 0.000000 0.052373
0.478595 0.000000 0.050082
0.482353 0.000000 0.058823
0.498042 0.000222 0.057464
0.509036 0.003245 0.058411
0.524342 0.005345 0.061409
0.546393 0.007839 0.062379
0.570737 0.009361 0.060126
0.592820 0.012211 0.058174
0.620291 0.020925 0.055318
0.633601 0.016882 0.038976
0.650980 0.000001 0.000000
0.650980 0.000001 0.000000
0.654902 0.000001 0.000000
0.678334 0.019128 0.009296
0.706004 0.038234 0.012143
0.721890 0.049439 0.014084
0.744636 0.062196 0.028030
0.754641 0.067350 0.035743
0.758808 0.068750 0.047721
0.757798 0.066716 0.066802
0.756797 0.063876 0.092467
0.752941 0.058824 0.109804
0.766672 0.073811 0.083124
0.777583 0.084112 0.064321
0.795534 0.103361 0.052840
0.803326 0.110618 0.044043
0.816658 0.124670 0.038230
0.824116 0.132857 0.034580
0.828345 0.137009 0.031551
0.843043 0.149815 0.047652
0.845844 0.152419 0.047362
0.847919 0.154339 0.047373
0.852742 0.162533 0.050960
0.857392 0.171840 0.054418
0.858280 0.172902 0.054861
0.864806 0.180378 0.068411
0.870134 0.185213 0.077945
0.870684 0.185911 0.078922
0.003922 0.007843 0.003922
0.007843 0.011765 0.003922
0.015686 0.011765 0.003922
0.023529 0.007843 0.003922
0.031373 0.011765 0.003922
0.039216 0.007843 0.003922
0.058824 0.003922 0.003922
0.073836 0.009075 0.010627
0.090196 0.000000 0.003922
0.109804 0.000000 0.000000
0.129412 0.000000 0.011765
0.155295 0.007801 0.026431
0.174796 0.006627 0.030726
0.195350 0.007669 0.035011
0.218842 0.005202 0.035058
0.239216 0.000000 0.023529
0.258548 0.001702 0.033954
0.278431 0.000000 0.027451
0.296500 0.001230 0.039681
0.321034 0.002257 0.046917
0.345871 0.001801 0.045751
0.374407 0.002554 0.048629
0.394961 0.002178 0.052597
0.412544 0.001206 0.055039
0.432348 0.000401 0.054486
0.451559 0.000000 0.051213
0.478720 0.000000 0.048739
0.494468 0.000266 0.051109
0.504038 0.000558 0.053225
0.514693 0.004084 0.057365
0.530132 0.005746 0.060279
0.547586 0.006334 0.060476
0.568739 0.007552 0.059691
0.590121 0.011721 0.055953
0.616078 0.018500 0.048425
0.632982 0.015120 0.033633
0.649992 0.007565 0.011835
0.650980 0.000001 0.000000
0.654902 0.000001 0.000000
0.676448 0.017324 0.008495
0.705833 0.038053 0.012132
0.722406 0.049842 0.014220
0.745229 0.062738 0.025801
0.755462 0.068041 0.031943
0.760361 0.069962 0.042112
0.759914 0.068459 0.060191
0.759130 0.066216 0.085243
0.752941 0.058824 0.109804
0.767366 0.074322 0.082296
0.778289 0.084614 0.063491
0.796187 0.103779 0.051957
0.803996 0.111089 0.043196
0.817297 0.125130 0.037470
0.824766 0.133358 0.033939
0.829005 0.137552 0.031014
0.843475 0.150192 0.046815
0.846264 0.152804 0.046613
0.850377 0.159388 0.049371
0.853095 0.162856 0.050377
0.857704 0.172115 0.053910
0.858561 0.173155 0.054418
0.865015 0.180558 0.067951
0.865514 0.181231 0.068737
0.870818 0.186038 0.078561
0.003922 0.011765 0.000000
0.007843 0.015686 0.003922
0.015686 0.019608 0.003922
0.019608 0.015686 0.003922
0.031373 0.015686 0.007843
0.047059 0.019608 0.003922
0.058823 0.015686 0.007843
0.078431 0.007843 0.003922
0.094158 0.017031 0.014087
0.110225 0.010646 0.010025
0.131077 0.008096 0.011129
0.160784 0.000000 0.011765
0.174307 0.012300 0.027569
0.192157 0.000000 0.000000
0.215733 0.009362 0.034994
0.239972 0.007230 0.040420
0.261023 0.005079 0.039010
0.274510 0.000000 0.023529
0.298052 0.003490 0.044442
0.320254 0.004031 0.048650
0.346569 0.004708 0.045964
0.369389 0.004498 0.046613
0.393883 0.003374 0.051830
0.414408 0.001911 0.054419
0.433858 0.001053 0.052573
0.455511 0.000621 0.049368
0.477853 0.000302 0.046460
0.499964 0.000777 0.043350
0.508296 0.000982 0.049398
0.517904 0.004569 0.056170
0.531784 0.006291 0.060005
0.549895 0.007135 0.060397
0.569077 0.006192 0.059457
0.589238 0.010792 0.055836
0.617936 0.016936 0.044567
0.632814 0.013488 0.026644
0.647935 0.010943 0.015736
0.657212 0.008359 0.008634
0.654902 0.000001 0.000000
0.675853 0.016573 0.008160
0.706044 0.038183 0.012210
0.727526 0.054055 0.015278
0.747105 0.064407 0.018591
0.756183 0.068651 0.028521
0.761789 0.071072 0.036488
0.762088 0.070229 0.052945
0.762169 0.069092 0.076126
0.759230 0.065621 0.092815
0.768913 0.075665 0.079761
0.779328 0.085406 0.062001
0.797025 0.104348 0.050760
0.804769 0.111641 0.042173
0.818005 0.125641 0.036613
0.825465 0.133895 0.033240
0.829702 0.138126 0.030442
0.832891 0.141353 0.028509
0.846710 0.153211 0.045837
0.850787 0.159760 0.048690
0.853464 0.163193 0.049777
0.858028 0.172399 0.053388
0.858850 0.173417 0.053965
0.865230 0.180743 0.067481
0.865704 0.181398 0.068329
0.870954 0.186168 0.078193
0.007843 0.023529 0.000000
0.007843 0.023529 0.003922
0.011765 0.023529 0.003922
0.019608 0.027451 0.003922
0.031373 0.027451 0.003922
0.047059 0.027451 0.003922
0.058824 0.027451 0.003922
0.070588 0.019608 0.003922
0.090196 0.019608 0.003922
0.113725 0.015686 0.003922
0.131894 0.019514 0.013501
0.150887 0.015383 0.014622
0.170537 0.017459 0.020211
0.196991 0.015886 0.027159
0.207843 0.007843 0.015686
0.238865 0.013156 0.038189
0.258823 0.000000 0.027451
0.279151 0.010692 0.041648
0.301833 0.009988 0.046856
0.319248 0.010319 0.050233
0.344447 0.008615 0.047083
0.368673 0.008918 0.048309
0.386368 0.007657 0.051320
0.411880 0.005767 0.053230
0.435005 0.004465 0.052279
0.458413 0.003708 0.050306
0.478858 0.002288 0.047516
0.505882 0.000000 0.027451
0.510409 0.001643 0.045918
0.522775 0.005985 0.054658
0.531480 0.007241 0.060320
0.550208 0.008094 0.060003
0.568985 0.006356 0.058124
0.589606 0.010239 0.054863
0.616017 0.017363 0.043372
0.631744 0.009417 0.018002
0.646986 0.012138 0.014997
0.660051 0.012261 0.011843
0.654902 0.000001 0.000000
0.677463 0.017539 0.008600
0.706730 0.038703 0.012402
0.728000 0.054453 0.015435
0.749010 0.066527 0.013243
0.756812 0.069181 0.025448
0.763080 0.072066 0.031283
0.764236 0.071947 0.045290
0.765613 0.072165 0.065910
0.763193 0.069452 0.082916
0.771400 0.077872 0.075333
0.780754 0.086528 0.059735
0.798084 0.105092 0.049177
0.805674 0.112292 0.040928
0.818802 0.126217 0.035633
0.826233 0.134483 0.032463
0.830458 0.138746 0.029817
0.833627 0.141988 0.027996
0.847194 0.153653 0.045010
0.851230 0.160162 0.047968
0.853860 0.163554 0.049143
0.858372 0.172702 0.052837
0.859157 0.173693 0.053488
0.859685 0.174418 0.054119
0.865904 0.181574 0.067901
0.871098 0.186304 0.077809
0.012362 0.043006 0.007193
0.011765 0.035294 0.003922
0.011765 0.035294 0.000000
0.015686 0.035294 0.000000
0.027451 0.039216 0.000000
0.043137 0.039216 0.003922
0.054902 0.031373 0.000000
0.074510 0.035294 0.003922
0.090196 0.027451 0.003922
0.114597 0.032030 0.009750
0.133333 0.023529 0.003922
0.149020 0.015686 0.011765
0.141176 0.031373 0.007843
0.207843 0.007843 0.007843
0.213541 0.022499 0.026708
0.237899 0.020884 0.029321
0.260897 0.018462 0.035596
0.278431 0.007843 0.027451
0.299686 0.018135 0.040737
0.323280 0.018989 0.045515
0.339767 0.019073 0.046392
0.364062 0.014091 0.048232
0.384194 0.013176 0.049072
0.407182 0.010938 0.053326
0.430764 0.008911 0.055334
0.457067 0.007287 0.052665
0.481008 0.005914 0.050988
0.498982 0.004250 0.049264
0.513730 0.004385 0.047894
0.526850 0.005209 0.052788
0.534078 0.009418 0.059234
0.553786 0.010281 0.058769
0.569164 0.009439 0.057696
0.592038 0.012193 0.053084
0.616919 0.017561 0.042397
0.627451 0.000001 0.000000
0.627451 0.000001 0.000000
0.662369 0.015670 0.014567
0.672921 0.014115 0.007980
0.681257 0.019972 0.009676
0.708110 0.039793 0.012771
0.728714 0.055062 0.015675
0.749328 0.066758 0.013399
0.757413 0.069689 0.022356
0.764366 0.073039 0.025981
0.766549 0.073754 0.036367
0.769635 0.075560 0.053650
0.768467 0.074243 0.069703
0.775314 0.081297 0.067971
0.782935 0.088266 0.055997
0.799616 0.106190 0.046782
0.806908 0.113185 0.039151
0.819855 0.126977 0.034323
0.827225 0.135241 0.031452
0.831420 0.139534 0.029017
0.834557 0.142789 0.027348
0.846850 0.157015 0.038611
0.851791 0.160670 0.047068
0.854359 0.164008 0.048356
0.858805 0.173082 0.052156
0.859539 0.174038 0.052899
0.860021 0.174728 0.053610
0.866151 0.181793 0.067375
0.871275 0.186472 0.077337
0.000000 0.035294 0.000000
0.000000 0.035294 0.000000
0.011765 0.047059 0.000000
0.015686 0.047059 0.000000
0.019608 0.047059 0.000000
0.039216 0.050980 0.000000
0.054902 0.054902 0.003922
0.078431 0.054902 0.007843
0.094118 0.043137 0.000000
0.105882 0.035294 0.000000
0.132396 0.046443 0.010215
0.149020 0.031373 0.000000
0.168627 0.035294 0.007843
0.192159 0.039007 0.021389
0.219608 0.023529 0.015686
0.233257 0.028578 0.018814
0.257110 0.025601 0.021902
0.274510 0.023529 0.027451
0.301961 0.019608 0.023529
0.319300 0.023437 0.034395
0.337255 0.015686 0.031373
0.362191 0.021080 0.038445
0.380985 0.021600 0.040002
0.398702 0.018725 0.044809
0.425502 0.017289 0.050864
0.453479 0.012416 0.053396
0.483376 0.010990 0.053489
0.504462 0.010722 0.049767
0.514125 0.011224 0.049066
0.526398 0.009864 0.051467
0.538176 0.012459 0.058112
0.557146 0.012358 0.057755
0.574185 0.013136 0.055614
0.597704 0.015097 0.049618
0.618215 0.020853 0.044342
0.632717 0.011902 0.020870
0.627451 0.000001 0.000000
0.667087 0.018742 0.014594
0.676398 0.017335 0.010240
0.683612 0.021504 0.010913
0.711032 0.043339 0.014560
0.729686 0.055925 0.016018
0.753325 0.070140 0.013895
0.759395 0.072313 0.011884
0.765523 0.073887 0.020988
0.768806 0.075460 0.027637
0.773749 0.078845 0.040024
0.774401 0.079290 0.054218
0.780596 0.085758 0.057355
0.786090 0.090773 0.050210
0.801781 0.107754 0.043209
0.808585 0.114399 0.036691
0.821247 0.127979 0.032575
0.828508 0.136217 0.030132
0.832652 0.140538 0.027990
0.835740 0.143806 0.026526
0.847731 0.157760 0.037507
0.853671 0.163238 0.046633
0.854992 0.164585 0.047374
0.859349 0.173560 0.051309
0.860017 0.174470 0.052169
0.860439 0.175114 0.052982
0.866458 0.182065 0.066727
0.866734 0.182583 0.067944
0.015630 0.068222 0.006865
0.013228 0.065913 0.004668
0.003922 0.062745 0.000000
0.011765 0.058824 0.000000
0.023529 0.062745 0.000000
0.027451 0.062745 0.000000
0.054902 0.070588 0.000000
0.086274 0.066667 0.000000
0.101961 0.054902 0.000000
0.117483 0.064163 0.005811
0.129412 0.054902 0.000000
0.145098 0.054902 0.000000
0.172232 0.059210 0.011839
0.188235 0.058824 0.003922
0.215757 0.049454 0.017983
0.239216 0.031373 0.011765
0.254902 0.039216 0.019608
0.278431 0.035294 0.019608
0.294118 0.035294 0.019608
0.305882 0.043137 0.011765
0.338660 0.032593 0.030854
0.361446 0.029894 0.032598
0.368627 0.023530 0.027451
0.395322 0.028036 0.033122
0.417436 0.028736 0.033562
0.446642 0.030690 0.037148
0.482933 0.030014 0.034606
0.504594 0.024024 0.038281
0.511941 0.022643 0.037530
0.523708 0.018340 0.042888
0.540716 0.015269 0.052609
0.562208 0.012740 0.053863
0.583240 0.014519 0.052274
0.606353 0.020315 0.046875
0.621003 0.023140 0.043035
0.639806 0.022661 0.029621
0.652754 0.020113 0.018777
0.667393 0.022335 0.018229
0.680426 0.022668 0.013239
0.686924 0.024305 0.012219
0.714908 0.048298 0.016778
0.729335 0.058356 0.016876
0.752704 0.069873 0.014040
0.758090 0.071488 0.012023
0.767671 0.076617 0.009154
0.770711 0.076829 0.020298
0.777295 0.081521 0.027518
0.780010 0.083765 0.038170
0.786492 0.090501 0.044287
0.790169 0.093961 0.042157
0.804640 0.109804 0.038158
0.810779 0.115979 0.033453
0.823036 0.129256 0.030314
0.830133 0.137442 0.028454
0.834197 0.141792 0.026703
0.837215 0.145072 0.025506
0.843304 0.154318 0.027551
0.850515 0.160529 0.036492
0.855783 0.165306 0.046173
0.860024 0.174153 0.050276
0.860607 0.175001 0.051282
0.860951 0.175586 0.052219
0.861129 0.175983 0.053072
0.867047 0.182868 0.067291
0.021819 0.082678 0.008030
0.021190 0.080795 0.006948
0.020468 0.078489 0.005575
0.011765 0.062745 0.000000
0.019608 0.078431 0.000000
0.031373 0.078431 0.000000
0.043137 0.082353 0.000000
0.062745 0.086275 0.000000
0.095429 0.087185 0.004636
0.117647 0.078431 0.000000
0.137372 0.080899 0.004572
0.152941 0.074510 0.000000
0.169577 0.076509 0.006860
0.190844 0.075648 0.011241
0.215575 0.065046 0.012959
0.231373 0.050980 0.000000
0.255001 0.059203 0.015016
0.278431 0.043137 0.011765
0.290196 0.047059 0.011765
0.309804 0.054902 0.015686
0.339994 0.053244 0.026453
0.368143 0.047912 0.031940
0.383495 0.037698 0.031226
0.392157 0.035294 0.027451
0.419608 0.031373 0.023529
0.440531 0.038846 0.026312
0.459042 0.039571 0.023456
0.474510 0.035295 0.015686
0.505882 0.007843 0.011765
0.509804 0.019608 0.027451
0.530624 0.026733 0.033871
0.559349 0.028512 0.040899
0.585139 0.023458 0.046687
0.606689 0.023980 0.047865
0.621239 0.025233 0.043621
0.640623 0.033543 0.036399
0.660521 0.036933 0.025684
0.669808 0.030073 0.019723
0.681188 0.033454 0.015470
0.696498 0.038229 0.016236
0.713106 0.051804 0.017722
0.730645 0.059563 0.017287
0.749800 0.068713 0.014979
0.757790 0.071300 0.012041
0.767402 0.076195 0.009143
0.773881 0.079473 0.011320
0.779810 0.083276 0.018342
0.784678 0.087478 0.024648
0.792011 0.094684 0.030820
0.794806 0.097478 0.032543
0.802944 0.106539 0.031503
0.813511 0.117917 0.029445
0.825259 0.130818 0.027510
0.832139 0.138937 0.026387
0.836096 0.143324 0.025131
0.839026 0.146622 0.024271
0.844919 0.155668 0.026492
0.851761 0.161623 0.035121
0.857102 0.172144 0.039644
0.860851 0.174880 0.049037
0.861323 0.175646 0.050220
0.861568 0.176156 0.051309
0.867832 0.188182 0.053362
0.867980 0.188820 0.054391
0.031503 0.101016 0.008316
0.030208 0.098850 0.005986
0.029111 0.096483 0.005204
0.025642 0.092134 0.003567
0.015686 0.082353 0.000000
0.031373 0.094118 0.000000
0.043137 0.090196 0.000000
0.066159 0.101282 0.003520
0.087969 0.106958 0.004243
0.111712 0.109466 0.003807
0.125490 0.094118 0.000000
0.152941 0.101961 0.000000
0.175474 0.094097 0.003134
0.192157 0.090196 0.000000
0.211765 0.094118 0.000000
0.231373 0.082353 0.003922
0.250980 0.070588 0.007843
0.274852 0.076975 0.010857
0.293812 0.070970 0.010998
0.314056 0.070525 0.015143
0.339667 0.072028 0.021062
0.373205 0.065379 0.026128
0.394851 0.062723 0.026564
0.411186 0.055829 0.027856
0.415686 0.050981 0.023529
0.440085 0.045977 0.024613
0.454902 0.047059 0.023529
0.470588 0.047059 0.023529
0.500265 0.036616 0.017067
0.513725 0.011765 0.000000
0.529972 0.039655 0.019992
0.548156 0.051171 0.020579
0.578775 0.048889 0.029814
0.601387 0.049003 0.034645
0.625379 0.037813 0.039029
0.644857 0.049316 0.030916
0.661303 0.050575 0.027244
0.669878 0.048016 0.022263
0.687862 0.049535 0.019198
0.699308 0.049733 0.016894
0.718058 0.058829 0.019447
0.732096 0.063632 0.017514
0.747561 0.068263 0.015658
0.757201 0.071150 0.012078
0.766969 0.075706 0.009079
0.774654 0.080208 0.007168
0.784012 0.086268 0.009172
0.787852 0.089638 0.015670
0.796454 0.097801 0.020322
0.799444 0.100850 0.023541
0.806849 0.109290 0.024935
0.816700 0.120119 0.024859
0.827905 0.132629 0.024210
0.834543 0.140694 0.023936
0.838379 0.145148 0.023270
0.844929 0.154847 0.025412
0.846866 0.157297 0.025245
0.853099 0.168231 0.028122
0.858377 0.173190 0.038176
0.861853 0.175759 0.047571
0.862183 0.176422 0.048967
0.862305 0.176835 0.050238
0.868443 0.188751 0.052406
0.868490 0.189316 0.053597
0.043834 0.118506 0.007099
0.043525 0.117491 0.007239
0.042040 0.115521 0.006271
0.041212 0.114259 0.005677
0.040836 0.113455 0.005321
0.035294 0.105882 0.000000
0.043137 0.117647 0.000000
0.066667 0.117647 0.000000
0.082512 0.120187 0.002133
0.105880 0.124289 0.003108
0.129538 0.120892 0.002487
0.148292 0.120803 0.003397
0.178627 0.115616 0.003102
0.194708 0.110500 0.001515
0.207843 0.109804 0.000000
0.230620 0.105983 0.003530
0.254902 0.094118 0.000000
0.270484 0.097787 0.010860
0.298039 0.090196 0.007843
0.305882 0.078431 0.000000
0.333333 0.058824 0.000000
0.365202 0.090036 0.011493
0.395622 0.078423 0.009809
0.406926 0.073509 0.015747
0.427619 0.068082 0.021398
0.435294 0.054902 0.003922
0.462550 0.062902 0.019283
0.470588 0.058824 0.011765
0.494118 0.058824 0.019608
0.514716 0.048881 0.012557
0.529412 0.031373 0.003921
0.550971 0.061594 0.014049
0.567136 0.068876 0.013714
0.595557 0.067469 0.022035
0.621500 0.070284 0.023601
0.645410 0.068718 0.021501
0.658715 0.070558 0.022368
0.670254 0.067690 0.020483
0.684098 0.059833 0.016532
0.699932 0.061407 0.016866
0.715051 0.064844 0.017115
0.730789 0.065200 0.017144
0.747043 0.068796 0.015626
0.756391 0.071167 0.012173
0.765166 0.074924 0.009089
0.773922 0.079436 0.007043
0.783661 0.086141 0.005163
0.790935 0.091751 0.007508
0.801030 0.100778 0.009489
0.803637 0.103728 0.016258
0.810761 0.111894 0.018747
0.820152 0.122399 0.020090
0.830901 0.134594 0.020576
0.837318 0.142660 0.021164
0.841044 0.147248 0.021149
0.847370 0.156784 0.023644
0.849309 0.159326 0.023648
0.855062 0.169770 0.026856
0.855545 0.170990 0.027316
0.860195 0.175263 0.037802
0.863206 0.177344 0.047509
0.863173 0.177637 0.048994
0.869158 0.189420 0.051299
0.869082 0.189894 0.052680
0.052485 0.137860 0.010240
0.053459 0.139752 0.009871
0.052134 0.136243 0.009866
0.053305 0.135817 0.007952
0.053559 0.135577 0.006428
0.050572 0.130441 0.003742
0.050980 0.121569 0.000000
0.062745 0.137255 0.000000
0.086275 0.137255 0.000000
0.086274 0.133333 0.000000
0.125922 0.146513 0.002592
0.151427 0.147155 0.003012
0.171101 0.142454 0.002869
0.168627 0.125490 0.000000
0.215829 0.127861 0.001095
0.227451 0.125490 0.000000
0.243137 0.121569 0.000000
0.266667 0.109804 0.003922
0.289795 0.117244 0.009275
0.316149 0.112694 0.008487
0.328715 0.106917 0.007589
0.357896 0.108644 0.010498
0.376471 0.094118 0.000000
0.407843 0.062745 0.000000
0.423529 0.090196 0.007843
0.423529 0.090196 0.019608
0.460431 0.086581 0.013357
0.481795 0.079429 0.013539
0.494118 0.070588 0.007843
0.514757 0.068987 0.012295
0.537323 0.069873 0.009500
0.555509 0.073988 0.010524
0.570236 0.083903 0.010757
0.584406 0.090860 0.009178
0.613716 0.099795 0.008523
0.642146 0.103134 0.006394
0.661977 0.096900 0.010795
0.671367 0.092554 0.009720
0.675659 0.086014 0.006823
0.687846 0.081215 0.011242
0.704177 0.075980 0.012959
0.725428 0.072159 0.015934
0.742910 0.070127 0.015254
0.755851 0.071433 0.012292
0.764854 0.075437 0.009149
0.773385 0.079175 0.006896
0.782489 0.084962 0.005045
0.791823 0.092075 0.003611
0.802184 0.101167 0.006451
0.809848 0.108711 0.008155
0.817645 0.117258 0.009785
0.827388 0.127949 0.011055
0.838219 0.140061 0.011772
0.840379 0.144725 0.018207
0.844035 0.149554 0.018845
0.850275 0.159064 0.021537
0.851963 0.161553 0.022069
0.857347 0.171571 0.025442
0.857588 0.172644 0.026137
0.862099 0.182686 0.027326
0.865463 0.185273 0.037669
0.865290 0.185819 0.038978
0.878184 0.203271 0.042849
0.878157 0.204062 0.044418
0.062713 0.167403 0.011971
0.063278 0.165406 0.010219
0.061777 0.161026 0.009748
0.061656 0.159693 0.009674
0.063474 0.158464 0.007420
0.063880 0.154138 0.006811
0.065580 0.151843 0.004880
0.070588 0.149020 0.000000
0.082353 0.156863 0.000000
0.101961 0.149020 0.000000
0.118367 0.157880 0.001251
0.146916 0.163762 0.001218
0.171490 0.164582 0.000883
0.188235 0.152941 0.000000
0.211452 0.153088 0.001418
0.237594 0.147814 0.000872
0.250980 0.141177 0.000000
0.269908 0.144114 0.002043
0.291287 0.136073 0.004680
0.305882 0.129412 0.007843
0.327499 0.128523 0.010786
0.345854 0.127819 0.011591
0.369243 0.122534 0.009867
0.400347 0.114604 0.008285
0.423815 0.108827 0.009105
0.431373 0.105882 0.003922
0.453086 0.103604 0.010657
0.473871 0.095984 0.008386
0.490293 0.091914 0.008491
0.512848 0.095855 0.010398
0.536838 0.092953 0.008354
0.556965 0.091556 0.006221
0.571806 0.096081 0.006955
0.584722 0.101409 0.006460
0.600970 0.112033 0.005465
0.627435 0.110311 0.006448
0.658507 0.113928 0.004479
0.671213 0.109642 0.003776
0.666667 0.082353 0.000000
0.666667 0.082353 0.000000
0.695812 0.086081 0.009611
0.713460 0.081502 0.012094
0.739644 0.072905 0.014811
0.752638 0.074202 0.011845
0.764559 0.076279 0.009393
0.772613 0.079520 0.007227
0.781154 0.084380 0.005135
0.791380 0.091635 0.003510
0.802930 0.101624 0.003121
0.811636 0.109608 0.006072
0.819539 0.118041 0.007354
0.829374 0.128880 0.008638
0.840441 0.141147 0.009540
0.845480 0.147537 0.010441
0.849443 0.152953 0.011272
0.853287 0.161416 0.019512
0.859146 0.171739 0.022907
0.859936 0.173626 0.023917
0.859917 0.174541 0.024851
0.871101 0.195607 0.019336
0.865963 0.193231 0.026666
0.874195 0.199430 0.030173
0.878805 0.203934 0.041506
0.878659 0.204648 0.043300
0.073189 0.185860 0.007235
0.073112 0.185639 0.007150
0.072683 0.183807 0.007121
0.073775 0.182676 0.005764
0.073425 0.181114 0.005408
0.073729 0.179533 0.004249
0.074274 0.177515 0.003928
0.079841 0.175408 0.002646
0.086275 0.168627 0.000000
0.098039 0.172549 0.000000
0.114611 0.168257 0.001932
0.128952 0.170978 0.001552
0.163324 0.183317 0.000737
0.190897 0.181235 0.000292
0.208358 0.178612 0.000301
0.233344 0.170064 0.001314
0.231373 0.160784 0.003922
0.266667 0.156863 0.000000
0.282353 0.168627 0.000000
0.317647 0.149020 0.000000
0.325490 0.145098 0.000000
0.349567 0.149033 0.012852
0.376097 0.148763 0.008823
0.395090 0.148859 0.007459
0.420259 0.145976 0.008148
0.443531 0.134086 0.007038
0.458306 0.130251 0.006537
0.475167 0.123425 0.008436
0.490055 0.119831 0.010377
0.508289 0.114335 0.010801
0.513725 0.113726 0.023529
0.548113 0.120058 0.010412
0.571646 0.120672 0.007547
0.583637 0.124320 0.005897
0.595391 0.122717 0.004963
0.612464 0.124454 0.004611
0.641407 0.122293 0.004123
0.668056 0.118574 0.003676
0.678121 0.114597 0.002642
0.680845 0.109552 0.001555
0.690758 0.117208 0.002470
0.708154 0.099084 0.008425
0.727603 0.083206 0.011456
0.748459 0.074153 0.012640
0.762449 0.076395 0.010305
0.772831 0.080962 0.007194
0.782851 0.086930 0.005028
0.791062 0.092232 0.003849
0.802579 0.101766 0.003211
0.812095 0.110136 0.003364
0.820588 0.118369 0.003552
0.830504 0.129228 0.007022
0.842337 0.141942 0.007761
0.847785 0.148772 0.008772
0.851868 0.154694 0.009934
0.858238 0.164579 0.012752
0.864001 0.174846 0.015979
0.868479 0.185638 0.016867
0.872864 0.195383 0.017963
0.872724 0.196848 0.018636
0.872294 0.197870 0.019232
0.874914 0.205380 0.019407
0.879879 0.210213 0.030833
0.879585 0.211122 0.032196
0.083352 0.205739 0.005630
0.082536 0.202895 0.005005
0.081988 0.201953 0.004781
0.081789 0.201451 0.004720
0.081387 0.199362 0.004020
0.080621 0.196184 0.003800
0.080265 0.193061 0.003328
0.080843 0.189486 0.002495
0.074510 0.176471 0.000000
0.094118 0.188235 0.000000
0.121569 0.184314 0.000000
0.134329 0.192080 0.003014
0.156960 0.196927 0.001399
0.185021 0.204204 0.000605
0.211765 0.188235 0.000000
0.224449 0.201245 0.000288
0.244656 0.196971 0.001232
0.266537 0.181610 0.001866
0.290327 0.179591 0.001203
0.301961 0.172549 0.000000
0.331001 0.167919 0.000925
0.349020 0.168628 0.000000
0.375301 0.170367 0.010214
0.392644 0.160091 0.007189
0.403922 0.152941 0.003922
0.443137 0.156863 0.000000
0.457463 0.156102 0.009735
0.475840 0.147886 0.009619
0.494118 0.149020 0.023529
0.510341 0.141550 0.008669
0.527277 0.137557 0.008975
0.539904 0.142618 0.012285
0.563294 0.145975 0.016424
0.568628 0.129412 0.011765
0.587672 0.136968 0.005334
0.602104 0.139922 0.003842
0.616629 0.143541 0.004064
0.651745 0.139480 0.003217
0.680778 0.132057 0.002775
0.687862 0.129848 0.001880
0.694190 0.131037 0.001955
0.701070 0.132661 0.002885
0.719887 0.109465 0.007121
0.739770 0.090737 0.009320
0.759044 0.086300 0.008801
0.773183 0.089027 0.006665
0.783780 0.088605 0.005152
0.791265 0.093252 0.004098
0.800264 0.100942 0.003569
0.810786 0.109878 0.003445
0.819740 0.118128 0.003561
0.830071 0.128889 0.003588
0.843050 0.142138 0.003604
0.849309 0.149446 0.007526
0.853768 0.155924 0.008800
