demo/leica-v2.cube
TITLE "3D LUT from Image Pairs"
LUT_3D_SIZE 8
0.003922 0.003922 0.003922
0.116644 0.009910 0.022197
0.293684 0.000841 0.043988
0.482353 0.000000 0.058823
0.650980 0.000001 0.000000
0.757798 0.066716 0.066802
0.828345 0.137009 0.031551
0.870684 0.185911 0.078922
0.043834 0.118506 0.007099
0.105880 0.124289 0.003108
0.298039 0.090196 0.007843
0.470588 0.058824 0.011765
0.658715 0.070558 0.022368
0.773922 0.079436 0.007043
0.841044 0.147248 0.021149
0.869082 0.189894 0.052680
0.138812 0.287443 0.002752
0.141769 0.283165 0.001354
0.266667 0.278431 0.000000
0.482353 0.258824 0.000000
0.627451 0.231373 0.000000
0.739018 0.270174 0.010880
0.864795 0.203652 0.006328
0.885911 0.224357 0.013430
0.251391 0.427585 0.000259
0.257181 0.432185 0.000000
0.279401 0.446711 0.000000
0.400449 0.478599 0.002271
0.564706 0.439216 0.047059
0.726367 0.417593 0.005807
0.830572 0.397156 0.012827
0.873980 0.407721 0.008528
0.364908 0.526006 0.010683
0.380750 0.538676 0.011255
0.390522 0.542829 0.009643
0.426290 0.576011 0.002228
0.490232 0.587151 0.001096
0.710196 0.579050 0.015608
0.823529 0.556863 0.003921
0.954167 0.576406 0.004549
0.455643 0.607246 0.023783
0.462143 0.612069 0.023833
0.469402 0.616054 0.002924
0.490306 0.631265 0.003245
0.507203 0.640056 0.002553
0.534785 0.653604 0.013691
0.817285 0.704925 0.007947
0.917647 0.721569 0.000000
0.493106 0.635874 0.016791
0.497189 0.637595 0.016787
0.499937 0.637802 0.003994
0.510003 0.644397 0.004478
0.515574 0.648107 0.004298
0.518536 0.648104 0.004387
0.869796 0.788213 0.028362
0.872647 0.782528 0.002442
0.511113 0.648757 0.033434
0.508681 0.644749 0.019101
0.508750 0.644804 0.018959
0.510278 0.644506 0.004504
0.515649 0.647992 0.004354
0.516227 0.648440 0.004398
0.815821 0.777867 0.040103
0.872498 0.786674 0.006076
0.018720 0.011320 0.131894
0.226261 0.080251 0.221283
0.311280 0.011968 0.154774
0.470588 0.007844 0.172549
0.611245 0.017358 0.165676
0.775965 0.108298 0.125201
0.870347 0.190950 0.180170
0.894074 0.207284 0.147906
0.050352 0.128084 0.138113
0.125490 0.125490 0.125490
0.286275 0.109804 0.133333
0.458824 0.090196 0.137255
0.623529 0.086275 0.133333
0.765531 0.094855 0.109828
0.867163 0.187811 0.168984
0.904014 0.219766 0.132509
0.113826 0.271213 0.085922
0.118721 0.273484 0.083127
0.266667 0.298039 0.062745
0.462745 0.262745 0.043137
0.615686 0.243137 0.058823
0.746094 0.213468 0.028690
0.845311 0.213127 0.029238
0.904335 0.238038 0.032318
0.246271 0.425764 0.018868
0.250525 0.430782 0.021024
0.264095 0.438824 0.014997
0.400000 0.454902 0.000000
0.586744 0.418028 0.043825
0.725686 0.400871 0.000671
0.835235 0.392094 0.010486
0.894477 0.371139 0.009323
0.336192 0.503765 0.009199
0.341550 0.508840 0.009470
0.365380 0.526122 0.012015
0.408105 0.559110 0.018131
0.500298 0.577963 0.009342
0.685102 0.563404 0.048485
0.811984 0.542137 0.001058
0.916046 0.545142 0.012853
0.465532 0.617386 0.054664
0.465654 0.617468 0.054410
0.466840 0.617379 0.039026
0.490517 0.632512 0.010699
0.513560 0.647799 0.004319
0.536457 0.658902 0.015360
0.805629 0.704473 0.046116
0.870157 0.692979 0.001985
0.490385 0.636646 0.048477
0.498239 0.641652 0.048825
0.501647 0.642714 0.032366
0.511713 0.647886 0.022868
0.510934 0.645252 0.004481
0.519668 0.650151 0.004480
0.870623 0.807341 0.116774
0.872893 0.788262 0.006449
0.511110 0.648793 0.033845
0.511134 0.648807 0.033751
0.511204 0.648849 0.033480
0.514554 0.649422 0.019562
0.515713 0.648066 0.004368
0.516363 0.648576 0.004420
0.790732 0.779802 0.089399
0.875364 0.796026 0.038254
0.022350 0.028647 0.432049
0.024712 0.031549 0.427952
0.426474 0.039901 0.263489
0.485142 0.045100 0.288825
0.637863 0.063657 0.346972
0.764706 0.058824 0.356863
0.799137 0.151656 0.333102
0.907722 0.235133 0.202364
0.086667 0.103316 0.314148
0.107819 0.088427 0.289703
0.314133 0.111246 0.303529
0.486274 0.105882 0.321569
0.625569 0.115534 0.327000
0.742131 0.104814 0.332417
0.834967 0.220663 0.295345
0.911814 0.239937 0.203797
0.063220 0.264071 0.243374
0.121569 0.294118 0.301961
0.290196 0.294118 0.290196
0.450980 0.270588 0.290196
0.607843 0.247059 0.282353
0.737255 0.243137 0.278431
0.839216 0.254902 0.274510
0.922904 0.253671 0.207215
0.247586 0.454006 0.230747
0.244854 0.450679 0.227497
0.244171 0.444644 0.232714
0.415686 0.454902 0.203922
0.588235 0.427451 0.164706
0.713725 0.407843 0.176471
0.827451 0.403922 0.180392
0.895220 0.360403 0.054229
0.330368 0.515014 0.199751
0.345443 0.523240 0.197048
0.390108 0.552203 0.191453
0.425532 0.569222 0.176196
0.521569 0.584314 0.137255
0.690033 0.557373 0.120509
0.815686 0.549020 0.094117
0.914581 0.550787 0.113284
0.472467 0.622067 0.126956
0.479420 0.628508 0.123205
0.480210 0.628669 0.111444
0.498211 0.642427 0.103779
0.512316 0.652675 0.098467
0.584573 0.675632 0.112819
0.777893 0.683467 0.099397
0.894954 0.696771 0.110680
0.489907 0.635647 0.065284
0.490000 0.635727 0.065252
0.498199 0.642680 0.073911
0.504746 0.646446 0.058646
0.522126 0.658687 0.053562
0.548341 0.670970 0.050382
0.825704 0.806624 0.185675
0.871188 0.810402 0.119720
0.508112 0.648934 0.054805
0.508136 0.648949 0.054720
0.508208 0.648995 0.054464
0.513357 0.651923 0.049666
0.516638 0.652342 0.032527
0.534367 0.663497 0.048773
0.723581 0.764151 0.139552
0.878326 0.819366 0.137621
0.028759 0.039081 0.459152
0.028544 0.038658 0.459337
0.029672 0.040776 0.457878
0.657253 0.176528 0.514707
0.720095 0.149038 0.500226
0.761506 0.130326 0.486942
0.831747 0.135554 0.477059
0.840997 0.173019 0.466193
0.033224 0.034838 0.484380
0.027817 0.033929 0.473500
0.040203 0.046795 0.462748
0.609061 0.180234 0.491670
0.675441 0.175035 0.519771
0.756045 0.132290 0.491665
0.849431 0.171241 0.495537
0.842007 0.188961 0.465180
0.047059 0.231373 0.490196
0.130071 0.258950 0.494497
0.306894 0.245905 0.489956
0.469057 0.255985 0.460846
0.627451 0.243137 0.494118
0.733333 0.254902 0.494118
0.829941 0.268174 0.480375
0.853472 0.244978 0.395843
0.183879 0.442334 0.476314
0.186773 0.438519 0.473306
0.240713 0.432198 0.443096
0.439216 0.443137 0.439216
0.580392 0.419608 0.427451
0.701961 0.403922 0.431373
0.823529 0.396079 0.427451
0.926599 0.412950 0.359330
0.309380 0.541749 0.377986
0.308867 0.541830 0.378714
0.315953 0.540530 0.369369
0.380629 0.558166 0.374871
0.537255 0.572549 0.345098
0.682353 0.549020 0.325490
0.800000 0.545098 0.329412
0.897554 0.542631 0.317868
0.416617 0.582048 0.258579
0.446795 0.601529 0.260489
0.469246 0.616845 0.261886
0.505916 0.647744 0.285352
0.540358 0.678797 0.307786
0.631373 0.690196 0.305882
0.784314 0.682353 0.282353
0.886243 0.684397 0.272746
0.529993 0.671759 0.238221
0.530105 0.671870 0.238208
0.533482 0.674759 0.241253
0.550286 0.687937 0.256224
0.584699 0.709012 0.265926
0.647220 0.745218 0.293662
0.686903 0.755609 0.298570
0.878556 0.835480 0.253782
0.524568 0.664341 0.122853
0.524614 0.664383 0.122935
0.529194 0.667766 0.123708
0.534576 0.671687 0.124038
0.555227 0.686941 0.156311
0.596110 0.712849 0.208302
0.665736 0.751664 0.262759
0.870383 0.830205 0.212942
0.026863 0.054751 0.475853
0.026843 0.054570 0.475935
0.026894 0.054667 0.476032
0.490022 0.110299 0.533237
0.748909 0.220690 0.587127
0.792342 0.204576 0.575327
0.837015 0.205710 0.564653
0.862052 0.209195 0.539726
0.027760 0.065922 0.502143
0.037434 0.066042 0.500249
0.040157 0.060835 0.490188
0.418874 0.103895 0.512806
0.742431 0.223909 0.589650
0.784633 0.225146 0.594388
0.835316 0.223779 0.583012
0.863505 0.211006 0.541944
0.023798 0.182247 0.618699
0.044109 0.180645 0.611570
0.155999 0.183524 0.586755
0.481444 0.305239 0.548183
0.691161 0.235042 0.569547
0.768345 0.255595 0.618050
0.832510 0.254971 0.598308
0.869322 0.237880 0.552206
0.031373 0.376471 0.627451
0.113021 0.371446 0.614625
0.247059 0.396078 0.607843
0.447059 0.388235 0.600000
0.587910 0.395992 0.599797
0.705882 0.392157 0.592157
0.823174 0.399605 0.598290
0.858003 0.389894 0.580158
0.199812 0.534636 0.598297
0.206868 0.538371 0.595242
0.232506 0.528810 0.573235
0.352941 0.537255 0.549020
0.552941 0.556863 0.552941
0.701961 0.552941 0.560784
0.807843 0.537255 0.560784
0.900624 0.514006 0.540074
0.378336 0.618248 0.504663
0.378858 0.618525 0.504761
0.391551 0.625901 0.503599
0.456609 0.664727 0.522512
0.481656 0.679407 0.516543
0.647059 0.678431 0.478431
0.788235 0.674510 0.470588
0.894118 0.690196 0.447059
0.525943 0.687255 0.404421
0.526035 0.687264 0.404142
0.530260 0.687318 0.389121
0.533319 0.682874 0.361055
0.565812 0.698142 0.336939
0.668498 0.763434 0.418179
0.759055 0.822050 0.449579
0.887307 0.832024 0.410262
0.564714 0.701470 0.289204
0.564774 0.701515 0.289204
0.573317 0.707276 0.289219
0.580417 0.711211 0.290073
0.614141 0.731439 0.299449
0.680833 0.771574 0.353666
0.700686 0.784619 0.362444
0.790100 0.825585 0.378657
0.031253 0.068719 0.496225
0.031238 0.068667 0.496247
0.029904 0.076679 0.508074
0.408302 0.108532 0.543139
0.807263 0.296033 0.658828
0.825415 0.313546 0.675836
0.832681 0.294914 0.658769
0.850135 0.256090 0.610043
0.029858 0.084817 0.521760
0.029853 0.084775 0.521731
0.029864 0.084892 0.521802
0.263726 0.090652 0.521022
0.800986 0.295699 0.658102
0.824015 0.317590 0.679544
0.834933 0.303715 0.667510
0.853663 0.276894 0.631545
0.043065 0.107534 0.546836
0.043089 0.106586 0.545952
0.043210 0.104769 0.544171
0.221283 0.141032 0.544495
0.739033 0.293824 0.634393
0.823060 0.323618 0.683809
0.842672 0.350118 0.706676
0.855080 0.303567 0.659623
0.198473 0.340543 0.667109
0.260877 0.342199 0.665135
0.317183 0.369934 0.673544
0.419562 0.384018 0.668009
0.556565 0.367151 0.630206
0.784538 0.397606 0.698940
0.846997 0.386937 0.732648
0.859902 0.378249 0.719307
0.111409 0.492512 0.721261
0.150970 0.509735 0.746713
0.203921 0.509804 0.737255
0.392157 0.525490 0.721569
0.576471 0.529412 0.717647
0.690196 0.525490 0.717647
0.803922 0.517647 0.709804
0.891060 0.526091 0.708999
0.212397 0.644709 0.784777
0.225777 0.640735 0.774339
0.242528 0.642587 0.769049
0.403149 0.655766 0.692009
0.486274 0.658824 0.674510
0.666667 0.670588 0.670588
0.843137 0.698039 0.701961
0.905063 0.652057 0.681978
0.469013 0.687562 0.553955
0.470131 0.688390 0.556775
0.487012 0.699346 0.565006
0.488848 0.700192 0.562946
0.503781 0.702588 0.557701
0.632161 0.749645 0.590406
0.780392 0.807843 0.607843
0.956863 0.839216 0.603922
0.515256 0.698361 0.492992
0.515301 0.698375 0.492918
0.521935 0.697669 0.467859
0.533927 0.702955 0.459718
0.623562 0.744447 0.422348
0.720494 0.801369 0.464936
0.774932 0.839449 0.506089
0.801310 0.854891 0.510404
0.030050 0.087886 0.523736
0.030047 0.087872 0.523739
0.030044 0.087874 0.523771
0.469041 0.148169 0.577532
0.749810 0.288689 0.670005
0.837906 0.340932 0.700021
0.841856 0.333616 0.693956
0.855247 0.342908 0.698763
0.030048 0.088096 0.524181
0.030046 0.088088 0.524183
0.030046 0.088113 0.524216
0.303354 0.103934 0.543995
0.789419 0.310102 0.681852
0.838071 0.341313 0.700348
0.850351 0.351126 0.708377
0.854353 0.354965 0.711368
0.042809 0.103025 0.542339
0.042821 0.102896 0.542216
0.042879 0.102665 0.541977
0.043049 0.102567 0.541797
0.787468 0.340544 0.701064
0.848801 0.369312 0.723129
0.850762 0.366702 0.721707
0.855982 0.361731 0.717302
0.113509 0.215947 0.625025
0.114763 0.216432 0.625177
0.167892 0.241261 0.636875
0.327688 0.305598 0.653502
0.557570 0.363329 0.625886
0.840848 0.400446 0.738428
0.857492 0.396359 0.743386
0.857885 0.383192 0.734638
0.277614 0.503209 0.766884
0.293978 0.516869 0.780792
0.301981 0.517416 0.781640
0.338792 0.485885 0.761478
0.513505 0.449734 0.698526
0.717495 0.500474 0.727967
0.849961 0.523785 0.806041
0.880015 0.476234 0.790696
0.179147 0.638267 0.803002
0.179488 0.638002 0.803583
0.193382 0.637281 0.807784
0.387875 0.622987 0.833928
0.495884 0.662693 0.836317
0.675883 0.648394 0.779253
0.819776 0.652296 0.818189
0.925490 0.654902 0.843137
0.218960 0.676469 0.822209
0.219913 0.676901 0.822161
0.229744 0.680481 0.821360
0.363048 0.740737 0.824139
0.483617 0.798998 0.816637
0.596672 0.813854 0.819940
0.807843 0.807843 0.807843
0.925201 0.800396 0.819167
0.485288 0.723643 0.634793
0.485460 0.723692 0.634619
0.501583 0.739281 0.652360
0.506012 0.748134 0.671499
0.523279 0.773924 0.722184
0.607724 0.801200 0.745328
0.823575 0.863976 0.658937
0.964804 0.978038 0.782695
0.030131 0.089482 0.525017
0.030130 0.089484 0.525028
0.207359 0.103260 0.542363
0.481185 0.156370 0.584256
0.750711 0.293298 0.674288
0.840938 0.346600 0.704979
0.850777 0.366641 0.721602
0.855961 0.361828 0.717358
0.030703 0.095686 0.533663
0.030701 0.095687 0.533669
0.030698 0.095704 0.533693
0.477437 0.156940 0.584401
0.751198 0.295831 0.676066
0.845452 0.355757 0.712331
0.850789 0.366679 0.721638
0.855909 0.361980 0.717497
0.043110 0.103184 0.542214
0.043118 0.103159 0.542189
0.043145 0.103116 0.542141
0.145402 0.111489 0.553489
0.717614 0.302481 0.685111
0.855619 0.381040 0.732708
0.856817 0.380503 0.732677
0.854212 0.373998 0.727667
0.058929 0.144497 0.577811
0.058951 0.144312 0.577636
0.059024 0.143859 0.577201
0.115573 0.170882 0.590397
0.662926 0.355935 0.686307
0.854344 0.403844 0.746827
0.858742 0.399611 0.745798
0.857788 0.385770 0.736252
0.292112 0.421298 0.734353
0.308872 0.433734 0.737655
0.330405 0.448597 0.738921
0.352557 0.425889 0.719575
0.483484 0.415834 0.691228
0.802147 0.489075 0.776495
0.863139 0.484598 0.792725
0.872611 0.443968 0.775321
0.322969 0.572697 0.832682
0.332213 0.575999 0.835536
0.348346 0.583229 0.844150
0.371169 0.588278 0.851032
0.392566 0.591540 0.848692
0.488897 0.579111 0.808428
0.859527 0.620281 0.843936
0.886667 0.597420 0.850394
0.195505 0.672362 0.834598
0.198076 0.674218 0.836958
0.199837 0.675754 0.838463
0.239924 0.686792 0.847004
0.532657 0.748993 0.910206
0.620477 0.787986 0.940977
0.768992 0.830829 0.930034
0.933772 0.778572 0.912585
0.260405 0.696997 0.830800
0.281799 0.706946 0.834360
0.341516 0.734393 0.837332
0.451759 0.786627 0.834081
0.504909 0.810995 0.827693
0.530370 0.822085 0.839865
0.809776 0.923586 0.942179
0.996078 0.996079 0.996078
